!!! OTL: Berkowitz488
!!! Chapter: 1
!!! Section: IV
!!! Page: 121
!!! Mode: 
!!! Encoder: DJB
**kern
*staff1
*I"Piano
=1-
*clefG2
*k[b-e-a-]
*E-:
*M4/4
8b-\L
8b-\
8cc\
8b-\J
8r
8a-/L
8b-/
8a-/J
=2
8r
8g/L
8a-/
8g/J
4f/
8g/L
8a-/J
=3
8r
8b-\
4e-/
8b-\
4d/
8b-\
=4
4c/
4en/
4g/
[4cc\
=5
8cc\L]
8cc\
8dd-\
8cc\J
8r
8g/L
8b-/
8a-/J
=6
8r
8e-/L
8g/
8f/J
8r
8c#/L
8e-/
8d/J
=7
!!linebreak:original
4B-/
4d/
4f/
[4dd\
=8
8dd\L]
8dd\
8cc\
8dd\J
4ee-\
4r
==
*-
